tools/download-figma-icons/icons/solid/eye-closed.svg

<svg width="24" height="24" viewBox="0 0 24 24" fill="none" xmlns="http://www.w3.org/2000/svg">
<path fill-rule="evenodd" clip-rule="evenodd" d="M21.3523 5.36544C21.7048 5.14419 22.1661 5.25144 22.3858 5.60319C22.6056 5.95494 22.4983 6.41694 22.1481 6.63669L2.64881 18.8392C2.52506 18.9172 2.38706 18.9539 2.25056 18.9539C2.00081 18.9539 1.75706 18.8294 1.61456 18.6022C1.39481 18.2504 1.50056 17.7877 1.85156 17.5679L21.3523 5.36544ZM3.82628 15.0091L8.25803 12.2341C8.25053 12.1883 8.25053 12.1508 8.25053 12.1066C8.25053 10.0358 9.93128 8.35659 12.0005 8.35659C12.6388 8.35659 13.2305 8.51409 13.7555 8.79159L17.0105 6.75909C15.533 5.88159 13.8313 5.25084 12.0005 5.25084C6.30128 5.25084 1.83128 11.4083 1.64378 11.6716C1.45628 11.9333 1.45628 12.2783 1.64378 12.5416L1.64708 12.5461C1.74497 12.68 2.53716 13.7637 3.82628 15.0091ZM22.3573 11.6713L22.3524 11.6646C22.2481 11.5209 21.4653 10.442 20.1755 9.20377L15.743 11.9705C15.7498 12.0163 15.7498 12.0613 15.7498 12.1063C15.7498 14.1763 14.0698 15.8563 11.9998 15.8563C11.363 15.8563 10.763 15.6988 10.238 15.4213L6.99051 17.4538C8.46726 18.3238 10.1698 18.9613 11.9998 18.9613C17.708 18.9613 22.1698 12.8038 22.3573 12.5413C22.5448 12.2788 22.5448 11.9338 22.3573 11.6713Z" fill="black"/>
</svg>

<svg xmlns="http://www.w3.org/2000/svg" width="24" height="24" fill="none" viewBox="0 0 24 24"><path fill="currentColor" fill-rule="evenodd" d="M21.352 5.365a.75.75 0 0 1 .796 1.271L2.648 18.84a.75.75 0 1 1-.797-1.271zM3.826 15.01l4.432-2.775c-.007-.046-.007-.083-.007-.127a3.75 3.75 0 0 1 5.505-3.315l3.255-2.033c-1.478-.877-3.18-1.508-5.01-1.508-5.7 0-10.17 6.157-10.357 6.42a.74.74 0 0 0 0 .87l.003.005c.098.134.89 1.218 2.18 2.463m18.531-3.338-.005-.006c-.104-.144-.887-1.223-2.177-2.461l-4.432 2.766q.009.069.007.136c0 2.07-1.68 3.75-3.75 3.75a3.76 3.76 0 0 1-1.762-.435l-3.247 2.033c1.476.87 3.179 1.507 5.009 1.507 5.708 0 10.17-6.157 10.357-6.42a.74.74 0 0 0 0-.87" clip-rule="evenodd"/></svg>
